X:1
T:III. In Dreams
T:V. In Dreams
T:Songs of Travel
T:Ralph Vaughan Williams
T:Robert Louis Stevenson
C:Ralph Vaughan Williams
Z:Robert Luois Stevenson
%%score 1 { ( 2 3 6 ) | ( 4 5 ) }
L:1/8
Q:1/4=60
M:3/4
K:Eb
V:1 treble nm="Voice"
V:2 treble nm="Piano"
V:3 treble 
V:6 treble 
V:4 bass 
V:5 bass 
V:1
"^Andantino" z6 | z2 z2!p!!<(! (G2 | B4!<)!!>(! G2 | ^F!>)! F3)!<(! (G G!<)! |!>(! B4!>)! A2 | %5
w: |In|dreams un-|hap- py, I be-|hold you|
 G4!>(! _G2!>)! | E3 E E2) | z2 z2!<(! (F2 | A3!<)!!>(! F E!>)! F | A2 _G2 F F | E4) (F2 | %11
w: stand as|here- to- fore:|The|un- re- mem- ber'd|to- kens in your|hand a-|
!<(! _D3!<)!!f! D _d2-) | d4 z!mf!"^poco animato" ^c |[Q:1/4=65]"^T" ^B=B B3 ^A | %14
w: vail no more.|_ No|more the morn- ing|
 (^G3!<(! ^A ^B!<)!=e |!f!!>(! ^d4)!>)!!p! ((^G2 | =d4) =c2 | !courtesy!=B6) | %18
w: glow, no more the|grace, en-|shrines, en-|dears.|
[Q:1/4=80]"^poco animando"[Q:1/4=70]"^T" (d2 ^c =c =B _B | B3!<(! =A G A!<)! |!f! f4- f e | %21
w: Cold beats the light of|time up- on your|face _ and|
 e4"^smorzando""_dim." _d2 | c4) z2 | z6 | z6 | z2 z2!<(! (G2!<)! | B4!>(! G2!>)! | %27
w: shows your|tears.|||He|came and|
 ^F3) (G!<(! (B2-!<)! |!>(! B3!>)! A) G2 | ^F4 G2 | %30
w: went. Per- chance|_ _ you|wept a-|
"^poco rit."[Q:1/4=65]"^T"!>(! E3)!>)!!pp! E D3/2 D/ | _G6 | %32
w: while and then for-|got.|
!f![Q:1/4=70]"^a tempo"[Q:1/4=60]"^T" (_d4 c2-) | c2 z (B =A _A | A G F3 F | (c4 =B2)) | %36
w: Ah me!|_ but he that|left you with a|smile _|
 z2 z2!pp!!<(! (G2!<)! |!>(! B4!>)! A2 |[Q:1/4=65]"^T" G4) z2[Q:1/4=60]"^T" | z6[Q:1/4=55]"^T" | %40
w: for-|gets you|not.||
[Q:1/4=50]"^T" z6 | z6 | z6 | z6 |] %44
w: ||||
V:2
 z6!p! | z2 z2 [EG]2 | [DB]4 [EG]2 | [D^F]4 [EG]2 | [DB]4 A2 | [EG]4 _G2 | [CE]6 | %7
 z2 z2!<(! ([_DF]2 | [CA]3!<)!!>(! [_DF][CE]!>)!!<(![DF]!<)! |!>(! A2!>)! _G2 F2 | [CE]4) ([_DF]2 | %11
!<(! [B,_D]4!<)!!f! _d2- | d4) z!mf! (^c | [^E^B][=E=B] B3 =A | %14
 [^B,^F^G]3 [^CF^A] [^DF^B]!<(![FB=e])!<)! |!f!!>(! _e4!>)!!p! (d2 | d4 =c2 | [^F=B]6) | %18
 z ([Gd][^F^c][=F=c][=E=B][_E_B]) | (_B3 =A!<(! [=B,=FG][CFA] | %20
 [EF=B][EGc]!<)!!f! [F_Ac] [ABf]2 [Gc_e]) | e4 _d2 | c4!<(! (C2!<)! |!>(! E4!>)! _D2) | z6 | %25
 z2 z2 ([EG]2 | [DB]4 [EG]2 | [D^F]3) ([EG] [DB]2- | [DB]3 A [EG]2 | [D^F]4 [EG]2 | [CE]4) D2 | %31
 _G G2 G2 G |!f! _d4 c2- | c3 (B=A_A | AG!<(![C_EF][B,EG][=A,E=A][EA=d])!<)! | (c4 =B2) | G6 | %37
!<(! (B4!<)! A2) | G4"^espressivo."!<(! (G2 | B4!<)! A2 | G4)[K:bass] (G,2 | ([D,B,]6-) | %42
 [D,B,]2 [D,A,]4 | [E,G,]6) |] %44
V:3
 z2 z C2 C- | C C2 C2 C- | C C2 C2 C- | C C2 C2 C- | C C2 C2 C- | C C2 C2 C | x6 | x6 | x6 | %9
 C4 _D2 | x6 | x4 [E=A][EA]- | [EA] [E=A]2 [EA] x ^F | x2 =E^D=D^C | x6 | [=F_A]6 | %16
 [=E^F] [EF]2 [EF]2 [EF] | =E6 | x6 | ED ^C=C x2 | x6 | [FG]!>(! [FG]2!>)! [FG]2 [FG]- | %22
 [FG] [FG]2 [FG] z2 | x6 | z2 z C2 C- | C C2 C2 C- | C!>(! C2 C2!>)! C- | C!<(! C2 C2!<)! C- | %28
 C!>(! C2 C2!>)! C- | C C2 C2 C | x6 | [B,_D]6 | [E=A] [EA]2 [EA]2 [EA] | [DF] [DF]2 ED_D | C2 x4 | %35
 [DF] [DF]2!>(! [DF]2 [DF]!>)! | [DE] [DE]2 [DE]!pp!!<(! [CE][CE]!<)! | %37
 [CD] [CD]2!>(! [CD]2 [CD]-!>)! | [CD] [CD]2 [CD]2 [CD]- | [CD]!>(! [CD]2 [CD]2!>)! [CD]- | %40
 [CD] [CD]2 [CD][K:bass] z2 | x6 | x6 | x6 |] %44
V:4
 z6 | z2 z2!<(! G,2!<)! |!>(! ^F,4!>)! G,2 | A,4!<(! G,2!<)! |!>(! ^F,4!>)! z2 | G,4 A,2 | %6
 B, B,2 B,2 B,- | B, B,2 B,2 B,- | B, B,2 B,2 B,- | B, B,2 B,2 B,- | B, B,2 B,2 B, | %11
 _G, G,2 G, =A,A,- | A, =A,2 A, z A, | ^G,=G, G,^F,^E,=E, | (^D,,^G,,^D,^G,^B,=E) | %15
 z (_B,,,=F,,=B,,=F,_B,) | [=E,^F,] [E,F,]2 [E,F,]2 [E,F,] | [^F,=A,] [F,A,]2 [F,A,]2 [F,A,] | %18
 z _B,=A,_A,G,^F, | ^F,=F,=E,_E, [D,,D,]2- | [D,,D,]4 [G,,,G,,][=A,,,=A,,] | %21
 z [F,G,]2 [F,G,]2 [F,G,]- | [F,G,G] [F,G,]2 [F,G,]2 [F,G,]- | [F,G,] [F,G,]2 [F,G,]2 [F,G,] | z6 | %25
 z2 z2 (G,2 | ^F,4 G,2) | A,3 G, ^F,2- | F,4 G,2 | A,4 G,2 | B,!>(! B,2!>)! B,2!pp! B, | %31
 _G, G,2 G,2 G, | =A, A,2 A,2 A, | _A, A,2 G,_G,D, | =E,2 (=A,,B,,C,F,,) | %35
 [D,F,] [D,F,]2 [D,F,]2 [D,F,] | [D,E,] [D,E,]2 [D,E,] [C,E,][C,E,] | %37
"_colla voce" [C,D,] [C,D,]2 [C,D,]2 [C,D,]- | %38
"_a tempo sempre rall." [C,D,] [C,D,]2 [C,D,]2 [C,D,]- | [C,D,] [C,D,]2 [C,D,]2 [C,D,]- | %40
 [C,D,] [C,D,]2 [C,D,]2 [C,-D,] | C, C,2 C,2 C,- | C, C,2 C,2 C,- | C,!>(! C,2 C, C, z!>)! |] %44
V:5
 x6 | x6 | x6 | x6 | x6 | x6 | G,6 | z2 z2 F,2 | E,3 F,_G,F, | E,4 F,2 | _G,4 F,2 | _F,4 =F,,2- | %12
 F,,4 [^C,,^C,]2- | [C,,C,]6 | x6 | x6 | x6 | =B,,6 | [D,,-D,]6 | D,,4 x2 | x6 | [=B,,,=B,,]6 | %22
 [C,,C,]6 | [=B,,,=B,,]6 | x6 | x6 | x6 | x6 | x6 | x6 | _G,4 F,2 | _F,6 | =F,,6 | B,,6 | B,,2 x4 | %35
 G,,6- | G,,6 | ^F,,6 | (G,,6 | ^F,,6) | G,,6 | ^F,,6- | F,,6 | G,,6 |] %44
V:6
 x6 | x6 | x6 | x6 | x6 | x6 | x6 | x6 | x6 | x6 | x6 | x6 | x6 | x6 | x6 | x6 | x6 | x4 ^D2 | x6 | %19
 x6 | x6 | x6 | x6 | x6 | x6 | x6 | x6 | x6 | x6 | x6 | x6 | x6 | x6 | x6 | x6 | x6 | x6 | x6 | %38
 x6 | x6 | x4[K:bass] x2 | x6 | x6 | x6 |] %44

